X: 38003
T: Speed The Plough
R: reel
M: 4/4
K: Dmajor
|:d3A BAFB|A2 FA EADE|FA A2 GB B2|ABde f3e|
dcdA BAFB|A2 FA EADE|FA A2 GB B2|1 ABde fddc:|2 ABde fdde||
|:faaf afdf|(3gfe fd edBd|faaf afdB|ABde fdde|
faaf afdf|(3gfe fd edBA|FA A2 GB B2|1 ABde fdde:|2 ABde f3e||

